dist/images/svg_sprite/education.svg

<svg width="80" height="85" viewBox="0 0 80 85" fill="none" xmlns="http://www.w3.org/2000/svg">
<g clip-path="url(#clip0)">
<path d="M70.6283 52.4809C75.7826 52.4809 79.9616 48.0713 79.9616 42.6311C79.9616 37.1909 75.7826 32.7812 70.6283 32.7812H14.2279L0.227905 42.6311L14.2279 52.4809H70.6283ZM69.295 35.5955H70.6283C74.3099 35.5955 77.295 38.7457 77.295 42.6311C77.295 46.5165 74.3099 49.6667 70.6283 49.6667H69.295V35.5955ZM63.9616 35.5955H66.6283V49.6667H63.9616V35.5955ZM17.8464 49.6667L20.5131 46.8524H61.295V49.6667H17.8464ZM20.3614 41.224H61.295V44.0382H20.3614L18.3614 42.6311L20.3614 41.224ZM61.295 38.4097H20.5131L17.8464 35.5955H61.295V38.4097ZM14.459 35.9995L17.8692 39.599L13.5612 42.6311L17.8731 45.6631L14.4629 49.2627L5.02804 42.6311L14.459 35.9995Z" fill="#4054B2"/>
<path d="M39.1106 7.47164C24.2747 7.88113 11.4778 18.5822 7.70764 33.7308L10.2877 34.4343C11.2421 30.6094 12.8626 27.005 15.0651 23.8054C16.8522 25.1527 18.763 26.3077 20.7695 27.251C20.401 28.518 20.0586 29.8152 19.776 31.1797L22.3802 31.7809C22.6295 30.5833 22.9264 29.4393 23.2454 28.3277C28.6041 30.3731 34.263 31.4037 39.9615 31.3741C45.6595 31.4064 51.319 30.3772 56.6783 28.3345C56.9948 29.4393 57.289 30.5751 57.5371 31.7609L60.1412 31.1591C59.86 29.8069 59.5201 28.5118 59.1536 27.2586C61.1627 26.3125 63.0768 25.1555 64.8665 23.8054C66.5768 26.3022 67.9388 29.0456 68.9108 31.9513L71.429 31.0223C66.8339 17.193 54.6041 7.81174 40.7213 7.46683L39.1106 7.47164ZM38.6282 10.3518V28.5104C33.6692 28.4122 28.7591 27.4551 24.0944 25.6769C27.2669 16.8261 32.748 11.0623 38.6282 10.3518ZM41.2949 10.3518C47.2161 11.1035 52.6692 16.8556 55.8281 25.6694C51.1634 27.4503 46.2539 28.4101 41.2949 28.5104V10.3518ZM29.1028 12.3485C25.7591 15.7694 23.2044 19.9557 21.636 24.5831C19.901 23.7483 18.2448 22.7404 16.6907 21.5738C20.0273 17.4479 24.2962 14.2778 29.1028 12.3553V12.3485ZM63.2356 21.5738C61.6816 22.7397 60.026 23.7476 58.2903 24.5831C56.7207 19.9495 54.1588 15.7598 50.804 12.3416C55.6198 14.2661 59.8958 17.4445 63.2356 21.5806V21.5738Z" fill="#4054B2"/>
<path d="M40.8119 77.7905C54.6608 77.4058 66.8444 68.0314 71.4277 54.2343L68.9095 53.3054C67.9375 56.2131 66.5742 58.9586 64.8626 61.4568C63.0729 60.106 61.1582 58.949 59.1478 58.0036C59.5163 56.7476 59.8561 55.4525 60.1374 54.1003L57.5332 53.4971C57.2852 54.6843 56.9909 55.8214 56.6732 56.9276C51.3151 54.885 45.6582 53.8564 39.9616 53.888C34.263 53.8557 28.6048 54.885 23.2454 56.9276C22.9251 55.8118 22.6283 54.6644 22.3789 53.4689L19.7747 54.0694C20.0573 55.4305 20.3997 56.7428 20.7708 58.0098C18.7643 58.9531 16.8529 60.1074 15.0651 61.4554C12.8444 58.2283 11.2161 54.5895 10.2656 50.7289L7.68164 51.4324C11.4277 66.6641 24.2943 77.425 39.2012 77.7953L40.8119 77.7905ZM41.2949 74.9103V56.7586C46.2533 56.8569 51.1634 57.8146 55.8281 59.5928C52.6563 68.4361 47.1745 74.1999 41.2949 74.9103ZM38.6283 74.9103C32.7051 74.1587 27.2533 68.4065 24.0944 59.5928C28.7591 57.8119 33.6686 56.8521 38.6283 56.7517V74.9103ZM50.8203 72.9137C54.1634 69.4928 56.7181 65.3064 58.2865 60.679C60.0215 61.5145 61.6777 62.5224 63.2318 63.6884C59.8952 67.8143 55.6263 70.9844 50.8203 72.9068V72.9137ZM16.6868 63.6884C18.2409 62.5224 19.8971 61.5145 21.6322 60.679C23.2018 65.3126 25.7643 69.5024 29.1185 72.9206C24.3034 70.9954 20.0267 67.8177 16.6868 63.6815V63.6884Z" fill="#4054B2"/>
<path d="M75.901 53.3336L78.4694 54.0935C78.5931 53.6242 78.7096 53.1556 78.8203 52.6863L76.2278 52.0192C76.1269 52.4596 76.0175 52.9028 75.901 53.3336Z" fill="#4054B2"/>
<path d="M61.2076 75.0326L62.7278 77.3446C63.4824 76.7915 64.2265 76.2061 64.9401 75.6042L63.2734 73.4077C62.6067 73.969 61.9121 74.5166 61.2076 75.0326Z" fill="#4054B2"/>
<path d="M52.0371 79.9197L52.8945 82.5931C53.7598 82.2812 54.6283 81.9322 55.4746 81.5563L54.4401 78.9626C53.6549 79.3076 52.8438 79.638 52.0371 79.9197Z" fill="#4054B2"/>
<path d="M74.1641 58.4502L76.6068 59.5756C76.9759 58.6907 77.3203 57.7789 77.6283 56.8672L75.1172 55.9183C74.8281 56.7737 74.5078 57.6236 74.1641 58.4502Z" fill="#4054B2"/>
<path d="M47.0612 81.3186L47.5664 84.082C48.4681 83.8993 49.3743 83.6794 50.2584 83.4321L49.5735 80.7119C48.7493 80.9442 47.9043 81.1482 47.0612 81.3186Z" fill="#4054B2"/>
<path d="M56.7826 77.8091L57.9825 80.3224C58.7963 79.8875 59.6107 79.4161 60.4011 78.9153L59.0411 76.505C58.3028 76.9647 57.5443 77.4078 56.7826 77.8091Z" fill="#4054B2"/>
<path d="M65.2291 71.6358L67.0345 73.7059C67.7096 73.0518 68.3678 72.3634 69 71.6612L67.0651 69.725C66.4772 70.3812 65.8587 71.0243 65.2291 71.6358Z" fill="#4054B2"/>
<path d="M71.7721 63.2666L74.0384 64.741C74.5188 63.9179 74.9785 63.0666 75.4043 62.2085L73.041 60.901C72.649 61.7035 72.22 62.4984 71.7721 63.2666Z" fill="#4054B2"/>
<path d="M68.7734 67.6878L70.8307 69.479C71.4173 68.7274 71.9837 67.951 72.513 67.1684L70.3437 65.5318C69.8496 66.2608 69.3216 66.987 68.7734 67.6878Z" fill="#4054B2"/>
<path d="M20.8119 79.7006C21.612 80.1657 22.448 80.6061 23.2813 81.0087L24.3933 78.4522C23.6172 78.075 22.8412 77.6641 22.0905 77.2306L20.8119 79.7006Z" fill="#4054B2"/>
<path d="M31.1185 83.8093C32.0105 84.0216 32.9239 84.2029 33.8308 84.3507L34.2305 81.5701C33.3829 81.4299 32.5319 81.2623 31.6973 81.0637L31.1185 83.8093Z" fill="#4054B2"/>
<path d="M16.1602 76.562C16.901 77.1405 17.6654 77.6964 18.4336 78.2158L19.8717 75.8392C19.1549 75.3548 18.4401 74.8361 17.7493 74.2913L16.1602 76.562Z" fill="#4054B2"/>
<path d="M11.9615 72.7783C12.6171 73.4572 13.3027 74.1181 13.9974 74.7489L15.7304 72.6086C15.0813 72.0233 14.4414 71.4056 13.8294 70.779L11.9615 72.7783Z" fill="#4054B2"/>
<path d="M36.5736 84.7038C37.4851 84.7842 38.4122 84.8323 39.3282 84.8447L39.3705 82.0304C38.5131 82.0167 37.6478 81.9713 36.795 81.8896L36.5736 84.7038Z" fill="#4054B2"/>
<path d="M41.9492 81.9755L42.0905 84.7897C43.0039 84.7402 43.931 84.6488 44.8398 84.5382L44.5176 81.7446C43.668 81.8504 42.8053 81.9294 41.9492 81.9755Z" fill="#4054B2"/>
<path d="M25.8281 82.1349C26.6868 82.4763 27.5612 82.7903 28.4466 83.0686L29.2122 80.3725C28.3932 80.1142 27.5723 79.8201 26.7708 79.502L25.8281 82.1349Z" fill="#4054B2"/>
<path d="M7.54423 62.1899L5.22913 63.5888C5.68551 64.4332 6.17314 65.2604 6.6842 66.065L8.89449 64.4992C8.42509 63.7475 7.96936 62.9711 7.54423 62.1899Z" fill="#4054B2"/>
<path d="M3.72009 52.1292L1.1322 52.8059C1.35356 53.7499 1.60811 54.6947 1.88806 55.6078L4.42126 54.7434C4.1641 53.888 3.92778 53.0113 3.72009 52.1292Z" fill="#4054B2"/>
<path d="M10.4082 66.7067L8.29626 68.4264C8.85746 69.1918 9.44926 69.9476 10.0586 70.669L12.0508 68.8036C11.4838 68.1255 10.931 67.4219 10.4082 66.7067Z" fill="#4054B2"/>
<path d="M5.29492 57.2959L2.82031 58.3471C3.16667 59.2561 3.54297 60.1527 3.9362 61.0109L6.33594 59.7824C5.97461 58.9833 5.6237 58.1458 5.29492 57.2959Z" fill="#4054B2"/>
<path d="M2.98112 48.074L0.339844 48.4595C0.402344 48.9404 0.473307 49.4207 0.550781 49.8961L3.17839 49.4159C3.10547 48.9713 3.04102 48.5241 2.98112 48.074Z" fill="#4054B2"/>
<path d="M2.97327 37.2513L0.329386 36.872C0.268188 37.3502 0.214803 37.8312 0.166626 38.3156L2.82157 38.5966C2.86389 38.1472 2.91467 37.6993 2.97327 37.2513Z" fill="#4054B2"/>
<path d="M48.7389 1.43779C47.8424 1.22686 46.9323 1.04478 46.0293 0.899811L45.6295 3.68176C46.4707 3.82261 47.3229 3.98613 48.1627 4.18401L48.7389 1.43779Z" fill="#4054B2"/>
<path d="M54.0267 3.10253C53.1745 2.76312 52.2937 2.4505 51.4108 2.17224L50.6478 4.86968C51.4733 5.13008 52.2937 5.4214 53.0866 5.73607L54.0267 3.10253Z" fill="#4054B2"/>
<path d="M72.332 22.9905L74.6426 21.5834C74.1829 20.739 73.6934 19.9131 73.1842 19.1154L70.9707 20.6799C71.4453 21.4302 71.9043 22.2065 72.332 22.9905Z" fill="#4054B2"/>
<path d="M74.5865 27.8687L77.0573 26.8133C76.7148 25.9215 76.3372 25.0263 75.9362 24.1558L73.5358 25.3884C73.9147 26.2019 74.2669 27.036 74.5865 27.8687Z" fill="#4054B2"/>
<path d="M69.4616 18.4806L71.5677 16.7567C71.0052 15.9913 70.4121 15.2403 69.8014 14.5182L67.8145 16.3939C68.3828 17.0666 68.9362 17.7687 69.4616 18.4806Z" fill="#4054B2"/>
<path d="M67.8958 12.4172C67.2428 11.7431 66.5559 11.0849 65.8587 10.4569L64.1256 12.6006C64.7786 13.1874 65.4199 13.8037 66.0306 14.4296L67.8958 12.4172Z" fill="#4054B2"/>
<path d="M63.6947 8.6479C62.9603 8.07488 62.1947 7.52179 61.42 7.00031L59.9896 9.37413C60.711 9.8592 61.4252 10.3773 62.1094 10.9118L63.6947 8.6479Z" fill="#4054B2"/>
<path d="M59.0443 5.52104C58.2441 5.05933 57.4069 4.62166 56.5736 4.21973L55.4668 6.77906C56.2428 7.15489 57.0176 7.56301 57.7669 7.99312L59.0443 5.52104Z" fill="#4054B2"/>
<path d="M43.2877 0.55833C42.3776 0.479317 41.4505 0.433283 40.5345 0.41748L40.4948 3.23172C41.3509 3.24409 42.2161 3.28806 43.0664 3.36089L43.2877 0.55833Z" fill="#4054B2"/>
<path d="M14.6757 13.6443L12.8717 11.5714C12.205 12.2248 11.5384 12.9125 10.9069 13.6161L12.8437 15.5495C13.4277 14.8941 14.0481 14.2523 14.6757 13.6443Z" fill="#4054B2"/>
<path d="M11.1399 17.5846L9.08264 15.7975C8.50126 16.5403 7.93616 17.3167 7.401 18.1047L9.57092 19.7427C10.069 19.0068 10.5989 18.2882 11.1399 17.5846Z" fill="#4054B2"/>
<path d="M8.14388 22.0066L5.87305 20.539C5.39323 21.3608 4.9401 22.212 4.50781 23.0723L6.87044 24.3791C7.26693 23.5704 7.69466 22.7754 8.14388 22.0066Z" fill="#4054B2"/>
<path d="M4.02018 31.9368L1.45182 31.1742C1.20638 32.099 0.986979 33.0499 0.798828 34.0028L3.4082 34.5765C3.58398 33.6847 3.78906 32.797 4.02018 31.9368Z" fill="#4054B2"/>
<path d="M5.7546 26.8182L3.31189 25.692C2.94145 26.5846 2.599 27.4949 2.29236 28.3998L4.80278 29.3479C5.08923 28.5008 5.40955 27.6509 5.7546 26.8182Z" fill="#4054B2"/>
<path d="M23.1106 7.46269L21.9108 4.95419C21.0918 5.39186 20.2799 5.86456 19.4948 6.36131L20.8626 8.77705C21.5892 8.31397 22.3483 7.87493 23.1106 7.46269Z" fill="#4054B2"/>
<path d="M32.8144 3.95384L32.3092 1.18976C31.4173 1.37183 30.5117 1.59101 29.6198 1.84179L30.3079 4.56121C31.1399 4.32623 31.9824 4.12217 32.8144 3.95384Z" fill="#4054B2"/>
<path d="M27.8451 5.35202L26.9812 2.69031C26.1198 3.00086 25.2481 3.34989 24.4056 3.72847L25.4441 6.32766C26.2344 5.96832 27.0443 5.64196 27.8451 5.35202Z" fill="#4054B2"/>
<path d="M18.692 10.246L17.1731 7.93402C16.4238 8.48162 15.6796 9.06837 14.9615 9.67506L16.6282 11.8716C17.2949 11.3041 17.9921 10.7586 18.692 10.246Z" fill="#4054B2"/>
<path d="M37.9225 3.2908L37.7786 0.476562C36.8626 0.530154 35.9375 0.617412 35.0332 0.73284L35.3587 3.52578C36.2038 3.4186 37.0651 3.3389 37.9225 3.2908Z" fill="#4054B2"/>
<path d="M75.8561 31.7637L78.4212 30.9914C78.2936 30.5221 78.1602 30.0563 78.0215 29.5939L75.4883 30.4692C75.6172 30.8973 75.7396 31.3288 75.8561 31.7637Z" fill="#4054B2"/>
</g>
<defs>
<clipPath id="clip0">
<rect y="0.41748" width="80" height="84.4272" fill="white"/>
</clipPath>
</defs>
</svg>

<svg width="80" height="85" fill="none" xmlns="http://www.w3.org/2000/svg"><g clip-path="url(#clip0)" fill="#4054B2"><path d="M70.628 52.48c5.155 0 9.334-4.409 9.334-9.849s-4.18-9.85-9.334-9.85h-56.4l-14 9.85 14 9.85h56.4zm-1.333-16.884h1.333c3.682 0 6.667 3.15 6.667 7.035 0 3.886-2.985 7.036-6.667 7.036h-1.333V35.595zm-5.333 0h2.666v14.07h-2.666v-14.07zm-46.116 14.07l2.667-2.814h40.782v2.815H17.846zm2.515-8.442h40.934v2.814H20.361l-2-1.407 2-1.407zm40.934-2.814H20.513l-2.667-2.814h43.449v2.814zM14.459 36l3.41 3.599-4.308 3.032 4.312 3.032-3.41 3.6-9.435-6.632L14.459 36z"/><path d="M39.11 7.472c-14.835.41-27.632 11.11-31.402 26.259l2.58.703a32.716 32.716 0 0 1 4.777-10.629 32.322 32.322 0 0 0 5.705 3.446 51.082 51.082 0 0 0-.994 3.929l2.604.6c.25-1.197.546-2.34.865-3.452a46.17 46.17 0 0 0 16.716 3.046 46.172 46.172 0 0 0 16.717-3.04c.317 1.105.611 2.241.86 3.427l2.603-.602a50.449 50.449 0 0 0-.987-3.9 32.43 32.43 0 0 0 5.712-3.454 32.859 32.859 0 0 1 4.045 8.146l2.518-.929C66.834 17.193 54.604 7.812 40.721 7.467l-1.61.005zm-.482 2.88V28.51a43.179 43.179 0 0 1-14.534-2.833c3.173-8.85 8.654-14.615 14.534-15.325zm2.667 0c5.921.752 11.374 6.504 14.533 15.317a43.17 43.17 0 0 1-14.533 2.841V10.352zm-12.192 1.996c-3.344 3.421-5.899 7.608-7.467 12.235a29.663 29.663 0 0 1-4.945-3.01c3.336-4.125 7.605-7.295 12.412-9.218v-.007zm34.133 9.226a29.724 29.724 0 0 1-4.946 3.01c-1.57-4.634-4.131-8.824-7.486-12.242 4.816 1.924 9.092 5.103 12.432 9.239v-.007zM40.812 77.79c13.849-.384 26.032-9.759 30.616-23.556l-2.519-.929a32.847 32.847 0 0 1-4.046 8.152 32.315 32.315 0 0 0-5.715-3.453 49.98 49.98 0 0 0 .99-3.904l-2.605-.603a47.764 47.764 0 0 1-.86 3.43 46.162 46.162 0 0 0-16.711-3.039 46.169 46.169 0 0 0-16.717 3.04 48.088 48.088 0 0 1-.866-3.46l-2.604.601c.282 1.361.625 2.674.996 3.94a32.316 32.316 0 0 0-5.706 3.446 32.724 32.724 0 0 1-4.8-10.726l-2.583.703c3.746 15.232 16.612 25.993 31.52 26.363l1.61-.005zm.483-2.88V56.76a43.182 43.182 0 0 1 14.533 2.834C52.656 68.436 47.174 74.2 41.295 74.91zm-2.667 0c-5.923-.751-11.375-6.504-14.534-15.317a43.173 43.173 0 0 1 14.534-2.841V74.91zm12.192-1.996c3.343-3.421 5.898-7.608 7.466-12.235a29.75 29.75 0 0 1 4.946 3.01c-3.337 4.125-7.606 7.295-12.412 9.218v.007zm-34.133-9.226a29.747 29.747 0 0 1 4.945-3.009c1.57 4.634 4.132 8.823 7.486 12.242-4.815-1.926-9.091-5.103-12.431-9.24v.007zm59.214-10.354l2.568.76c.124-.47.24-.938.351-1.408l-2.592-.667c-.101.44-.21.884-.327 1.315zM61.208 75.033l1.52 2.312a41.47 41.47 0 0 0 2.212-1.74l-1.667-2.197a39.055 39.055 0 0 1-2.065 1.625zm-9.171 4.887l.858 2.673c.865-.312 1.733-.66 2.58-1.037l-1.035-2.593c-.785.345-1.596.675-2.403.957zm22.127-21.47l2.443 1.126c.369-.885.713-1.797 1.021-2.709l-2.51-.949c-.29.856-.61 1.706-.954 2.532zM47.061 81.319l.505 2.763a38.21 38.21 0 0 0 2.692-.65l-.684-2.72c-.825.232-1.67.436-2.513.607zm9.722-3.509l1.2 2.512a37.986 37.986 0 0 0 2.418-1.407l-1.36-2.41c-.738.46-1.497.903-2.258 1.304zm8.447-6.174l1.804 2.07A41.737 41.737 0 0 0 69 71.66l-1.935-1.936c-.588.656-1.206 1.3-1.836 1.91zm6.542-8.369l2.266 1.474c.48-.823.94-1.674 1.366-2.532L73.041 60.9a36.7 36.7 0 0 1-1.269 2.366zm-2.999 4.421l2.058 1.791a42.184 42.184 0 0 0 1.682-2.31l-2.17-1.637a39.316 39.316 0 0 1-1.57 2.156zM20.812 79.7a36.4 36.4 0 0 0 2.47 1.309l1.111-2.557a36.76 36.76 0 0 1-2.303-1.221l-1.278 2.47zm10.307 4.11c.892.212 1.805.393 2.712.54l.4-2.78a37.2 37.2 0 0 1-2.534-.506l-.578 2.745zM16.16 76.562a41.075 41.075 0 0 0 2.274 1.654l1.438-2.377a35.884 35.884 0 0 1-2.123-1.548l-1.589 2.271zm-4.199-3.784c.656.68 1.342 1.34 2.036 1.97l1.733-2.14a41.832 41.832 0 0 1-1.9-1.829l-1.869 2zm24.613 11.926c.911.08 1.838.128 2.754.14l.042-2.814a32.554 32.554 0 0 1-2.575-.14l-.221 2.814zm5.376-2.729l.14 2.815c.914-.05 1.841-.141 2.75-.252l-.322-2.793a36.93 36.93 0 0 1-2.569.23zm-16.122.16c.859.341 1.733.655 2.619.934l.765-2.697a36.013 36.013 0 0 1-2.441-.87l-.943 2.633zM7.544 62.19L5.23 63.589c.457.844.944 1.671 1.455 2.476l2.21-1.566a44.926 44.926 0 0 1-1.35-2.31zM3.72 52.13l-2.588.676c.222.944.476 1.889.756 2.802l2.533-.865a44.653 44.653 0 0 1-.7-2.614zm6.688 14.577l-2.112 1.72a41.706 41.706 0 0 0 1.763 2.242l1.992-1.865a41.018 41.018 0 0 1-1.643-2.097zm-5.113-9.411L2.82 58.347c.347.91.723 1.806 1.116 2.664l2.4-1.229a49.203 49.203 0 0 1-1.041-2.486zm-2.314-9.222L.34 48.46c.062.48.133.96.21 1.436l2.628-.48a44.822 44.822 0 0 1-.197-1.342zm-.008-10.823L.33 36.872c-.06.478-.114.96-.162 1.444l2.655.28c.042-.449.093-.897.151-1.345zM48.739 1.438A38.576 38.576 0 0 0 46.029.9l-.4 2.782c.842.14 1.694.304 2.534.502l.576-2.746zm5.288 1.665a37.853 37.853 0 0 0-2.616-.93l-.763 2.697c.825.26 1.646.551 2.439.866l.94-2.633zM72.332 22.99l2.31-1.407c-.46-.844-.949-1.67-1.458-2.468l-2.213 1.565c.474.75.933 1.526 1.361 2.31zm2.255 4.879l2.47-1.056a44.61 44.61 0 0 0-1.12-2.657l-2.401 1.232c.379.814.73 1.648 1.05 2.48zm-5.125-9.389l2.106-1.723a41.927 41.927 0 0 0-1.767-2.239l-1.987 1.876a40.654 40.654 0 0 1 1.648 2.087zm-1.566-6.063a41.727 41.727 0 0 0-2.037-1.96L64.126 12.6a40.44 40.44 0 0 1 1.905 1.829l1.865-2.013zm-4.201-3.769A40.232 40.232 0 0 0 61.42 7l-1.43 2.374a36.97 36.97 0 0 1 2.12 1.538l1.585-2.264zm-4.651-3.127c-.8-.462-1.637-.9-2.47-1.301l-1.107 2.56c.776.375 1.55.783 2.3 1.213l1.277-2.472zM43.288.558a39.951 39.951 0 0 0-2.753-.14l-.04 2.814a36.09 36.09 0 0 1 2.571.129l.222-2.803zM14.676 13.644l-1.804-2.073a44.563 44.563 0 0 0-1.965 2.045l1.937 1.934a36.238 36.238 0 0 1 1.832-1.906zm-3.536 3.941l-2.057-1.788A42.482 42.482 0 0 0 7.4 18.105l2.17 1.638a44.193 44.193 0 0 1 1.569-2.158zm-2.996 4.422l-2.271-1.468c-.48.822-.933 1.673-1.365 2.533L6.87 24.38c.397-.809.825-1.604 1.274-2.372zm-4.124 9.93l-2.568-.763a45.216 45.216 0 0 0-.653 2.829l2.61.574c.175-.892.38-1.78.611-2.64zm1.735-5.119l-2.443-1.126c-.37.893-.713 1.803-1.02 2.708l2.51.948c.287-.847.608-1.697.953-2.53zM23.11 7.463l-1.2-2.509c-.818.438-1.63.91-2.415 1.407l1.368 2.416a36.523 36.523 0 0 1 2.248-1.314zm9.704-3.509L32.31 1.19a38.24 38.24 0 0 0-2.69.652l.689 2.72a34.24 34.24 0 0 1 2.506-.608zm-4.969 1.398l-.864-2.662c-.861.31-1.733.66-2.575 1.038l1.038 2.6c.79-.36 1.6-.686 2.401-.976zm-9.153 4.894l-1.519-2.312a40.19 40.19 0 0 0-2.211 1.741l1.666 2.197a36.145 36.145 0 0 1 2.064-1.626zm19.23-6.956L37.78.478a40.46 40.46 0 0 0-2.746.256l.326 2.793a36.862 36.862 0 0 1 2.563-.235zm37.934 28.474l2.565-.773c-.127-.469-.26-.935-.4-1.397l-2.533.875c.13.428.252.86.368 1.295z"/></g><defs><clipPath id="clip0"><path fill="#fff" d="M0 .417h80v84.427H0z"/></clipPath></defs></svg>
